X: 17865
T: Horse Fly
R: reel
M: 4/4
K: Amajor
|:e-|eafe ~c2 ec|BcAF EFAB|cA ~A2 ABce|fc ~c2 fcec|
eafe ~c2 ec|BcAF EFAB|cA ~A2 ABcf|1 ecBc ~A3:|2 ecBc ABce||
~f2 af fece|~f2 af fece|fecf ecBc|AFEF ABce|
~f2 af fece|~f2 af fece|Lafea LfeLaf|ecBc ABce|
~f2 af fece|~f2 af fece|fecf ecBc|AFEF ABce|
~f2 af fece|~f2 af fece|Lafea LfeLaf|eaLfe Lafec||
~A2 cA EAcB|AcBA EAcA|~B2 dB FBdc|BdcB FBdB|
~c2 ec Aced|cedc Acec|~B2 dB FBdc|BdcB FBdB|
~A2 cA EAcB|AcBA EAcA|~B2 dB FBdc|BdcB FBdB|
~c2 ec Aced|cedc Acec|~B2 Bc ~d2 dc|Be ~e2 efg||

